packages/elvis-assets-icons/icons/svg/src/analytics_bars.svg

<svg width="24" height="24" viewBox="0 0 24 24" fill="none" xmlns="http://www.w3.org/2000/svg">
<path d="M10.75 17.5C10.336 17.5 10 17.164 10 16.75V11.5C10 11.086 10.336 10.75 10.75 10.75C11.164 10.75 11.5 11.086 11.5 11.5V16.75C11.5 17.164 11.164 17.5 10.75 17.5Z" fill="black"/>
<path d="M7.75 17.5C7.336 17.5 7 17.164 7 16.75V9.75C7 9.336 7.336 9 7.75 9C8.164 9 8.5 9.336 8.5 9.75V16.75C8.5 17.164 8.164 17.5 7.75 17.5Z" fill="black"/>
<path d="M13.75 17.5C13.336 17.5 13 17.164 13 16.75V13.75C13 13.336 13.336 13 13.75 13C14.164 13 14.5 13.336 14.5 13.75V16.75C14.5 17.164 14.164 17.5 13.75 17.5Z" fill="black"/>
<path d="M16.75 17.5C16.336 17.5 16 17.164 16 16.75V6.75C16 6.336 16.336 6 16.75 6C17.164 6 17.5 6.336 17.5 6.75V16.75C17.5 17.164 17.164 17.5 16.75 17.5Z" fill="black"/>
<path d="M4.5 17.5C4.086 17.5 3.75 17.164 3.75 16.75V13.75C3.75 13.336 4.086 13 4.5 13C4.914 13 5.25 13.336 5.25 13.75V16.75C5.25 17.164 4.914 17.5 4.5 17.5Z" fill="black"/>
<path d="M19.75 17.5C19.336 17.5 19 17.164 19 16.75V11.75C19 11.336 19.336 11 19.75 11C20.164 11 20.5 11.336 20.5 11.75V16.75C20.5 17.164 20.164 17.5 19.75 17.5Z" fill="black"/>
<path fill-rule="evenodd" clip-rule="evenodd" d="M0.25 5.5C0.25 3.98122 1.48122 2.75 3 2.75H21C22.5188 2.75 23.75 3.98122 23.75 5.5V18.5C23.75 20.0188 22.5188 21.25 21 21.25H3C1.48122 21.25 0.25 20.0188 0.25 18.5V5.5ZM3 4.25C2.30964 4.25 1.75 4.80964 1.75 5.5V18.5C1.75 19.1904 2.30964 19.75 3 19.75H21C21.6904 19.75 22.25 19.1904 22.25 18.5V5.5C22.25 4.80964 21.6904 4.25 21 4.25H3Z" fill="black"/>
</svg>

<svg width="24" height="24" fill="none" xmlns="http://www.w3.org/2000/svg"><path d="M10.75 17.5a.75.75 0 01-.75-.75V11.5a.75.75 0 011.5 0v5.25a.75.75 0 01-.75.75zM7.75 17.5a.75.75 0 01-.75-.75v-7a.75.75 0 011.5 0v7a.75.75 0 01-.75.75zM13.75 17.5a.75.75 0 01-.75-.75v-3a.75.75 0 011.5 0v3a.75.75 0 01-.75.75zM16.75 17.5a.75.75 0 01-.75-.75v-10a.75.75 0 011.5 0v10a.75.75 0 01-.75.75zM4.5 17.5a.75.75 0 01-.75-.75v-3a.75.75 0 011.5 0v3a.75.75 0 01-.75.75zM19.75 17.5a.75.75 0 01-.75-.75v-5a.75.75 0 011.5 0v5a.75.75 0 01-.75.75z" fill="#000"/><path fill-rule="evenodd" clip-rule="evenodd" d="M.25 5.5A2.75 2.75 0 013 2.75h18a2.75 2.75 0 012.75 2.75v13A2.75 2.75 0 0121 21.25H3A2.75 2.75 0 01.25 18.5v-13zM3 4.25c-.69 0-1.25.56-1.25 1.25v13c0 .69.56 1.25 1.25 1.25h18c.69 0 1.25-.56 1.25-1.25v-13c0-.69-.56-1.25-1.25-1.25H3z" fill="#000"/></svg>
